X:15
T:Heres the Bower. Dix.15
M:2/4
L:1/8
Q:1/4=80
S:Anon. MS dated 1811, from Dixon collection, Holton le Moor, Lincs.
R:Song
C:T. Moore
O:England;Lincolnshire;Holton le Moor
Z:vmp.R.Greig 2010 <http://www.village-music-project.org.uk>
K:C
d e/ cz/ G/|A F c z|A B> c ({B/}A/)z/ G/|Gc2z|!
w:Here’s the bower she loved so much, A-nd the tree she plant-ed.
d> e cz/ G/|A F c/z/Hc2|{c}B> A B G|G c2z|!
w:Here’s the harp she used to touch, Oh how that touch en-chant-ed!
~F G/ A A|G E c2|d> c (B{dc}) A/|AG2z|!
w:Ro-ses now un-heed-ed sigh, Where’s the hand to wreathe them?
A> ^G Az B/|c< d {d}e z|d> B {d}c> A|AG2z|!
w:Songs a-round neg-lect-ed lie, Where’s the lip to breathe them?
d> e c z/G/|A F/c/ c z|B> c {B}Az/ G/|Gc2z|!
w:Here’s the bower she loved s-o much, And the tree she plant-ed.
d> e c z/G/|A F c/ z/Hc|B> A B G|Gc2z||
w:Here’s the harp she used to touch. Oh how that touch en-chant-ed.

